X: 26
T: Mr and Mrs ROBERT PATTERSON
C: Andrew Rankine
R: jig
B: "The Complete Andrew Rankine Collection of Scottish Country Dance Tunes" p.31
Z: 2017 John Chambers <jc:trillian.mit.edu>
M: 6/8
L: 1/8
K: D
A |\
"D"dfe dFG | A3- ABc | ded "Bm"def | "Em"fee e2d |\
"A"ced cEF | G3- GAB | ced cBB | BAA "A7"ABc |
y3 |\
"D"dfe dFG | A3- ABc | dcd def | "G"agg g2f |\
"A"ece "G"dcB | "D"A3- AEF | "A"GFG "A7"ABc | "D"edd d2 |]
A |\
dcd "Ddim"FG^G | "D"A3- A de | f3- fef | "A7"agg g2f |\
eAB cEF | G3- GAB | c3- cdc | "A"BAA "A7"ABc |
y3 |\
"D"dcd "Ddim"FG^G | "D"A3 A de | f3- "D7"fef | "G"agg g2f |\
"A"ece "G"dcB | "D"A3 AEF | "A"GFG "A7"ABc | "D"edd d2 |]

%%sep 1 1 500

